X:7
T: Kinyílt a rózsa
O: Törökkoppány (Somogy)
Q: "Allegretto"
L:1/4
K:F
d c/c/ | d G |
c c/c/ | d B | 
B/c/d/d/ | d/c/B/G/ |
F/F/F/F/ | G G |

